X:1
T:Title
%%score 1 { 2 | 3 }
L:1/8
Q:1/4=97
M:4/4
K:F
V:1 treble nm="Grand Piano, Soprano"
V:2 bass nm="Choir Pad, Give Me Thine Heart"
V:3 bass 
V:1
 CC[CF][CF] [CF] [CF]3 | [CF] [CE]2 [CF]- [CF] [EG]3 | CC[EG][EG] [EG] [EG]3 | %3
w: By~Alonzo~Judson~Abbey * * * * *|||
 [EG] F2 [EG]- [EG] [FA]3 | [FA][FA][FA][FA] [FA] [FA]3 | [FA] [EG]2 [FA]- [FA] [EB]3 | %6
w: |||
 [EG][FA][FA][FA] [FB] [Fc]3 | F [CF]2 [CE]- [CE] .[CF]3 | C [CF]2 [DF]- [DF] [CF]3 | %9
w: |||
 F [EG]2 [FG]- [FG] [EG]3 | [EG][FA][FA][FA] [FB] [Fc]3 | F [CF]2 [CE]- [CE] [CF]3- | [CF]4 z4 |] %13
w: ||||
V:2
 A,A,A,A, A, A,3 | C B,2 A,- A,[K:treble] C3 | CCCC C C3 | B, A,2 C- C C3 | CCCC C C3 | %5
 C C2 C- C C3 | CCC[K:bass]F, G, A,3 | C A,2 G,- G, .A,3 | A, A,2 B,- B, A,3 | A, C2 =B,- B, C3 | %10
 CCCF, G, A,3 | C A,2 G,- G, A,3- | A,4 z4 |] %13
V:3
 F,F,F,F, F, F,3 | A, G,2 F,- F, C,3 | C,C,C,C, C, C,3 | C, D,2 C,- C, F,3 | F,F,F,F, F, F,3 | %5
 F, B,2 A,- A, G,3 | C,F, .F,2 F, F,3 | A,, C,2 C,- C, .F,,3 | F, F,2 B,,- B,, F,3 | %9
 F, C,2 G,,- G,, C,3 | C,F, .F,2 F, F,3 | A,, C,2 C,- C, [F,,F,]3- | [F,,F,]4 z4 |] %13

